src/assets/duotone/BagHappy.svg

<svg width="24" height="24" viewBox="0 0 24 24"  xmlns="http://www.w3.org/2000/svg">
<path opacity="0.4" d="M19.24 5.57957H18.84L15.46 2.19957C15.19 1.92957 14.75 1.92957 14.47 2.19957C14.2 2.46957 14.2 2.90957 14.47 3.18957L16.86 5.57957H7.14L9.53 3.18957C9.8 2.91957 9.8 2.47957 9.53 2.19957C9.26 1.92957 8.82 1.92957 8.54 2.19957L5.17 5.57957H4.77C3.87 5.57957 2 5.57957 2 8.13957C2 9.10957 2.2 9.74957 2.62 10.1696C2.86 10.4196 3.15 10.5496 3.46 10.6196C3.75 10.6896 4.06 10.6996 4.36 10.6996H19.64C19.95 10.6996 20.24 10.6796 20.52 10.6196C21.36 10.4196 22 9.81957 22 8.13957C22 5.57957 20.13 5.57957 19.24 5.57957Z" />
<path d="M19.65 10.7004H4.35996C4.06996 10.7004 3.74996 10.6904 3.45996 10.6104L4.71996 18.3004C4.99996 20.0204 5.74996 22.0004 9.07996 22.0004H14.69C18.06 22.0004 18.66 20.3104 19.02 18.4204L20.53 10.6104C20.25 10.6804 19.95 10.7004 19.65 10.7004ZM12 18.5004C9.65996 18.5004 7.74996 16.5904 7.74996 14.2504C7.74996 13.8404 8.08996 13.5004 8.49996 13.5004C8.90996 13.5004 9.24996 13.8404 9.24996 14.2504C9.24996 15.7704 10.48 17.0004 12 17.0004C13.52 17.0004 14.75 15.7704 14.75 14.2504C14.75 13.8404 15.09 13.5004 15.5 13.5004C15.91 13.5004 16.25 13.8404 16.25 14.2504C16.25 16.5904 14.34 18.5004 12 18.5004Z" />
</svg>

<?xml version="1.0" encoding="UTF-8"?>
<svg width="24" height="24" viewBox="0 0 24 24" xmlns="http://www.w3.org/2000/svg">
 <path d="m19.24 5.5796h-0.4l-3.38-3.38c-0.27-0.27-0.71-0.27-0.99 0-0.27 0.27-0.27 0.71 0 0.99l2.39 2.39h-9.72l2.39-2.39c0.27-0.27 0.27-0.71 0-0.99-0.27-0.27-0.71-0.27-0.99 0l-3.37 3.38h-0.4c-0.9 0-2.77 0-2.77 2.56 0 0.97 0.2 1.61 0.62 2.03 0.24 0.25 0.53 0.38 0.84 0.45 0.29 0.07 0.6 0.08 0.9 0.08h15.28c0.31 0 0.6-0.02 0.88-0.08 0.84-0.2 1.48-0.80003 1.48-2.48 0-2.56-1.87-2.56-2.76-2.56z" opacity=".4"/>
 <path d="m19.65 10.7h-15.29c-0.29 0-0.61-0.01-0.9-0.09l1.26 7.69c0.28 1.72 1.03 3.7 4.36 3.7h5.61c3.37 0 3.97-1.69 4.33-3.58l1.51-7.81c-0.28 0.07-0.58 0.09-0.88 0.09zm-7.65 7.8c-2.34 0-4.25-1.91-4.25-4.25 0-0.41 0.34-0.75 0.75-0.75s0.75 0.34 0.75 0.75c0 1.52 1.23 2.75 2.75 2.75s2.75-1.23 2.75-2.75c0-0.41 0.34-0.75 0.75-0.75s0.75 0.34 0.75 0.75c0 2.34-1.91 4.25-4.25 4.25z"/>
</svg>
